icon-themes/breeze_svg/cmd/lc_freeline_unfilled.svg

<svg viewBox="0 0 24 24" xmlns="http://www.w3.org/2000/svg"><path d="m13 4-7.34375 7.3125-1.40625 1.4375-.25.25v4h1 2 1l.25-.25.375-.34375.6875-.71875.375-.34375 6.3125-6.34375 1-1zm-.59375 2 2.59375 2.59375-4.28125 4.25-2.5625-2.59375zm-4.96875 4.96875 2.59375 2.59375-.71875.71875-2.59375-2.59375.28125-.28125zm-1.40625 1.40625 2.59375 2.59375-.71875.71875-2.59375-2.59375zm11.466797 2.625c-.26168.001-.95438.046-2.0625.5625-.34642.1616-.63562.3445-1.03125.5625-.2112.1164-.96821.4943-1.25.625-.82575.3832-1.09998.4799-1.8125.75-.68957.2615-1.4331101.4987-1.9375001.6875-2.12309.7948-5.40625.8125-5.40625.8125v1s3.32719.032 5.75-.875c.3213801-.1203.8814301-.3176 1.4062501-.5.807092-.294355 1.679133-.656736 2.40625-.96875.30467-.1414 1.01284-.49105 1.3125-.65625.44025-.2426.73379-.42175.96875-.53125.51342-.3024 1.08335-.48235 1.65625-.46875-.0448.0002.17377.0098.375.09375.20123.084.42477.2336.59375.375.32735.3319.46461.58515.53125 1.03125-.0257.682-.26059.89575-.75 1.28125-.323864.214542-.779737.253597-1.248047.222656v.96875c.783787.0016 1.411016-.154348 1.779297-.347656.83679-.4772 1.24797-1.33645 1.21875-2.15625-.005-.2879-.0772-.52505-.21875-.84375-.14159-.3186-.344-.6761-.65625-.9375-.4819-.4232-.72357-.6094-1.625-.6875z" fill="#4d4d4d"/></svg>

<svg xmlns="http://www.w3.org/2000/svg" viewBox="0 0 24 24">
 <path 
     style="fill:#4d4d4d" 
     d="M 13 4 L 5.65625 11.3125 L 4.25 12.75 L 4 13 L 4 17 L 5 17 L 7 17 L 8 17 L 8.25 16.75 L 8.625 16.40625 L 9.3125 15.6875 L 9.6875 15.34375 L 16 9 L 17 8 L 13 4 z M 12.40625 6 L 15 8.59375 L 10.71875 12.84375 L 8.15625 10.25 L 12.40625 6 z M 7.4375 10.96875 L 10.03125 13.5625 L 9.3125 14.28125 L 6.71875 11.6875 L 7 11.40625 L 7.4375 10.96875 z M 6.03125 12.375 L 8.625 14.96875 L 7.90625 15.6875 L 5.3125 13.09375 L 6.03125 12.375 z M 17.498047 15 C 17.236367 15.001 16.543667 15.046 15.435547 15.5625 C 15.089127 15.7241 14.799927 15.907 14.404297 16.125 C 14.193097 16.2414 13.436087 16.6193 13.154297 16.75 C 12.328547 17.1332 12.054317 17.2299 11.341797 17.5 C 10.652227 17.7615 9.9086869 17.9987 9.4042969 18.1875 C 7.2812069 18.9823 3.9980469 19 3.9980469 19 L 3.9980469 20 C 3.9980469 20 7.3252369 20.032 9.7480469 19.125 C 10.069427 19.0047 10.629477 18.8074 11.154297 18.625 C 11.961389 18.330645 12.83343 17.968264 13.560547 17.65625 C 13.865217 17.51485 14.573387 17.1652 14.873047 17 C 15.313297 16.7574 15.606837 16.57825 15.841797 16.46875 C 16.355217 16.16635 16.925147 15.9864 17.498047 16 C 17.453247 16.0002 17.671817 16.0098 17.873047 16.09375 C 18.074277 16.17775 18.297817 16.32735 18.466797 16.46875 C 18.794147 16.80065 18.931407 17.0539 18.998047 17.5 C 18.972347 18.182 18.737457 18.39575 18.248047 18.78125 C 17.924183 18.995792 17.46831 19.034847 17 19.003906 L 17 19.972656 C 17.783787 19.974256 18.411016 19.818308 18.779297 19.625 C 19.616087 19.1478 20.027267 18.28855 19.998047 17.46875 C 19.993047 17.18085 19.920847 16.9437 19.779297 16.625 C 19.637707 16.3064 19.435297 15.9489 19.123047 15.6875 C 18.641147 15.2643 18.399477 15.0781 17.498047 15 z "
     />
 </svg>
